X:15879
T:St Davids Day. JC.203
T:Welchman's Leek,The,aka. JC.203
M:6/8
L:1/8
Q:80
S:John Clare,Poet,Helpstone (1793-1864)
R:Air
O:England150
A:Northamptonshire
N:
Z:P Headford
K:D
A|Add"qu"d2e|fede2A|Add"qu"d2e|fed faA|!
Add"qu"d2e|fede2B|Beee2d|cdB cA|!
|:A|gfe fed|cBAA2A|gfe fed|ceee2A|!
gfe fad|egd {d}cBA|Add"qu"d2A|Addd2:|]
W:Song text exists. See Deacon.


